X: 38555
T: Stiffen 'm Brenda
R: jig
M: 6/8
K: Gminor
e|d2F DFB|EGB eBG|c2e FAc|Bdc ABc|
d2F DFB|GEB, G,B,E|CFA ecA|Bdc B2:|
g|f z F DFB|g z G EGB|a3 FAc|Bdc ABc|
[1 d z F DFB|g z G EGB|Agf gec|Bdc B2:|
[2 dcd Bdf|gfg B2g|Agf gec|Bdc B2||

